assets/images/clients/partner2.svg

<svg width="136" height="19" viewBox="0 0 136 19" fill="none" xmlns="http://www.w3.org/2000/svg">
<g clip-path="url(#clip0_1307_7379)">
<path d="M82.6667 3.89637C82.3473 3.57024 82.1875 3.10303 82.1875 2.49479V0.125H82.9578V2.46502C82.9578 3.28904 83.3094 3.70105 84.0125 3.70105C84.7159 3.70105 85.0656 3.28904 85.062 2.46502V0.125H85.8203V2.49479C85.8203 3.10303 85.6614 3.57024 85.3437 3.89637C85.0262 4.22252 84.5806 4.38558 84.007 4.38558C83.4336 4.38558 82.9869 4.22252 82.6667 3.89637Z" fill="#5A5A5A"/>
<path d="M91.4174 0.125V4.32512H90.7831L88.4952 1.48102V4.32512H87.7305V0.125H88.365L90.65 2.96912V0.125H91.4174Z" fill="#5A5A5A"/>
<path d="M93.3613 0.125H94.1316V4.32512H93.3613V0.125Z" fill="#5A5A5A"/>
<path d="M99.845 0.125L98.0373 4.32512H97.2781L95.4648 0.125H96.3003L97.6774 3.3653L99.0711 0.125H99.845Z" fill="#5A5A5A"/>
<path d="M104.223 3.6713V4.32233H101.113V0.125H104.143V0.776037H101.884V1.86792H103.887V2.51059H101.884V3.66851L104.223 3.6713Z" fill="#5A5A5A"/>
<path d="M108.629 4.32576L107.781 3.09621C107.746 3.09621 107.69 3.10179 107.621 3.10179H106.684V4.32576H105.914V0.125616H107.621C107.943 0.118113 108.263 0.179267 108.561 0.305117C108.811 0.411618 109.025 0.591325 109.174 0.821297C109.32 1.06055 109.394 1.33793 109.387 1.61928C109.395 1.90862 109.316 2.19352 109.159 2.43588C108.999 2.67037 108.77 2.84849 108.505 2.94554L109.459 4.32576H108.629ZM108.353 1.00173C108.179 0.857568 107.925 0.785024 107.589 0.785024H106.687V2.45911H107.589C107.925 2.45911 108.179 2.38565 108.353 2.23963C108.441 2.16334 108.51 2.0676 108.555 1.95985C108.601 1.8521 108.621 1.73524 108.614 1.61835C108.62 1.50177 108.6 1.3853 108.554 1.27812C108.508 1.17095 108.439 1.07601 108.351 1.0008L108.353 1.00173Z" fill="#5A5A5A"/>
<path d="M111.436 4.2476C111.178 4.17686 110.937 4.0524 110.729 3.8821L110.995 3.27569C111.183 3.42172 111.395 3.53433 111.62 3.60867C111.859 3.69361 112.11 3.73731 112.364 3.73794C112.67 3.73794 112.9 3.68801 113.055 3.5882C113.124 3.54835 113.181 3.49072 113.221 3.42114C113.261 3.35157 113.282 3.27251 113.283 3.19199C113.284 3.13595 113.274 3.08025 113.251 3.02883C113.229 2.97741 113.196 2.9315 113.155 2.89436C113.061 2.81023 112.952 2.74686 112.833 2.70836C112.702 2.66372 112.524 2.61535 112.298 2.5577C112.038 2.4989 111.782 2.42278 111.531 2.32983C111.337 2.25464 111.164 2.13195 111.028 1.97269C110.879 1.78798 110.804 1.55392 110.817 1.31607C110.813 1.09102 110.878 0.87024 111 0.682703C111.14 0.479557 111.336 0.322169 111.563 0.229767C111.854 0.109951 112.167 0.0526292 112.481 0.0614257C112.733 0.0607301 112.984 0.0919746 113.229 0.154431C113.454 0.210792 113.668 0.305112 113.862 0.433447L113.619 1.03984C113.441 0.933534 113.25 0.850713 113.05 0.793379C112.863 0.739101 112.67 0.710938 112.476 0.709673C112.171 0.709673 111.945 0.761757 111.796 0.865925C111.729 0.910756 111.674 0.972277 111.636 1.04469C111.598 1.1171 111.58 1.19801 111.581 1.2798C111.58 1.33533 111.59 1.39055 111.612 1.44141C111.634 1.49227 111.668 1.53747 111.709 1.5737C111.804 1.65506 111.914 1.71641 112.032 1.75413C112.163 1.79815 112.34 1.84806 112.566 1.90387C112.823 1.96043 113.077 2.03565 113.324 2.12894C113.519 2.20471 113.693 2.32726 113.831 2.48608C113.98 2.66841 114.055 2.9009 114.042 3.13713C114.045 3.36102 113.981 3.58062 113.858 3.76678C113.717 3.96904 113.52 4.12539 113.293 4.21691C112.999 4.33697 112.684 4.39428 112.367 4.38526C112.052 4.38658 111.738 4.34019 111.436 4.2476Z" fill="#5A5A5A"/>
<path d="M115.635 0.125H116.406V4.32512H115.635V0.125Z" fill="#5A5A5A"/>
<path d="M119.201 0.784409H117.824V0.125H121.345V0.784409H119.968V4.32512H119.201V0.784409Z" fill="#5A5A5A"/>
<path d="M124.485 2.84355V4.32512H123.714V2.85471L122.084 0.125H122.91L124.126 2.17112L125.352 0.125H126.112L124.485 2.84355Z" fill="#5A5A5A"/>
<path d="M83.0184 11.3076C82.6867 11.1289 82.4099 10.8608 82.2187 10.5329C82.0281 10.1958 81.9277 9.81413 81.9277 9.42564C81.9277 9.03717 82.0281 8.65546 82.2187 8.31842C82.4099 7.99078 82.6867 7.723 83.0184 7.54461C83.3727 7.36125 83.7651 7.26562 84.163 7.26562C84.5608 7.26562 84.953 7.36125 85.3073 7.54461C85.6385 7.72251 85.9151 7.98924 86.1069 8.31563C86.2975 8.65366 86.3979 9.03628 86.3979 9.42564C86.3979 9.81502 86.2975 10.1976 86.1069 10.5357C85.9151 10.8623 85.6385 11.1294 85.3073 11.3076C84.953 11.491 84.5608 11.5866 84.163 11.5866C83.7651 11.5866 83.3727 11.491 83.0184 11.3076ZM84.9096 10.7133C85.1284 10.5894 85.309 10.4066 85.4312 10.185C85.5559 9.95203 85.6212 9.69116 85.6212 9.42612C85.6212 9.16106 85.5559 8.9002 85.4312 8.66718C85.3092 8.44545 85.1287 8.26255 84.9096 8.1389C84.6797 8.01499 84.4234 7.95018 84.163 7.95018C83.9025 7.95018 83.6459 8.01499 83.416 8.1389C83.197 8.26226 83.0162 8.44526 82.8947 8.66718C82.7697 8.9002 82.7045 9.16106 82.7045 9.42612C82.7045 9.69116 82.7697 9.95203 82.8947 10.185C83.0167 10.4068 83.1972 10.5897 83.416 10.7133C83.6459 10.8372 83.9025 10.902 84.163 10.902C84.4234 10.902 84.6797 10.8372 84.9096 10.7133Z" fill="#5A5A5A"/>
<path d="M88.8122 7.98089V9.25877H90.8154V9.9191H88.8122V11.5272H88.041V7.3252H91.0708V7.97622L88.8122 7.98089Z" fill="#5A5A5A"/>
<path d="M97.8097 10.5553H95.7348L95.3263 11.5272H94.5312L96.3951 7.3252H97.1542L99.027 11.5262H98.2211L97.8097 10.5553ZM97.5545 9.9433L96.7722 8.10643L95.9955 9.9433H97.5545Z" fill="#5A5A5A"/>
<path d="M103.099 11.5268L102.252 10.301C102.199 10.3063 102.145 10.3084 102.092 10.3075H101.156V11.5314H100.381V7.3248H102.088C102.411 7.31751 102.731 7.37898 103.028 7.50525C103.278 7.61151 103.492 7.79126 103.641 8.02143C103.788 8.26058 103.862 8.53796 103.855 8.8194C103.862 9.10883 103.783 9.39368 103.626 9.63599C103.466 9.87073 103.237 10.0489 102.972 10.1457L103.926 11.5259L103.099 11.5268ZM102.824 8.20279C102.649 8.05863 102.395 7.98607 102.059 7.98607H101.158V9.66019H102.059C102.395 9.66019 102.649 9.58763 102.824 9.44162C102.911 9.36523 102.981 9.26948 103.026 9.16176C103.071 9.05404 103.091 8.9372 103.084 8.82034C103.091 8.70374 103.071 8.58722 103.025 8.48002C102.979 8.37283 102.909 8.2779 102.821 8.20279H102.824Z" fill="#5A5A5A"/>
<path d="M106.33 7.98647H104.953V7.3252H108.474V7.98553H107.097V11.5262H106.326L106.33 7.98647Z" fill="#5A5A5A"/>
<path d="M109.887 7.3252H110.657V11.5262H109.887V7.3252Z" fill="#5A5A5A"/>
<path d="M113.376 7.98089V9.25877H115.38V9.9191H113.376V11.5272H112.605V7.3252H115.635V7.97622L113.376 7.98089Z" fill="#5A5A5A"/>
<path d="M117.211 7.3252H117.981V11.5262H117.211V7.3252Z" fill="#5A5A5A"/>
<path d="M120.716 11.3076C120.386 11.1292 120.112 10.8621 119.922 10.5357C119.732 10.1972 119.633 9.81476 119.633 9.42565C119.633 9.03653 119.732 8.65408 119.922 8.31561C120.113 7.98954 120.389 7.72284 120.719 7.5446C121.036 7.37961 121.385 7.28543 121.741 7.26843C122.097 7.25142 122.453 7.31198 122.785 7.44602C123.059 7.56117 123.302 7.73989 123.496 7.96779L122.997 8.4421C122.859 8.28413 122.688 8.1584 122.497 8.07347C122.305 7.98857 122.098 7.94649 121.889 7.95012C121.623 7.94454 121.36 8.00861 121.125 8.13612C120.904 8.25732 120.721 8.43911 120.598 8.66067C120.473 8.89485 120.408 9.15676 120.408 9.42286C120.408 9.68893 120.473 9.95084 120.598 10.185C120.722 10.4067 120.904 10.5887 121.125 10.7105C121.36 10.8376 121.623 10.9017 121.889 10.8965C122.099 10.9 122.306 10.8572 122.497 10.7713C122.689 10.6854 122.86 10.5583 122.997 10.399L123.496 10.8789C123.302 11.1071 123.057 11.2858 122.782 11.4006C122.486 11.5234 122.168 11.5847 121.848 11.581C121.454 11.5879 121.065 11.4938 120.716 11.3076Z" fill="#5A5A5A"/>
<path d="M125.076 7.3252H125.846V11.5262H125.076V7.3252Z" fill="#5A5A5A"/>
<path d="M130.483 10.5553H128.408L127.999 11.5272H127.205L129.072 7.3252H129.831L131.704 11.5262H130.898L130.483 10.5553ZM130.228 9.9433L129.445 8.10643L128.67 9.9433H130.228Z" fill="#5A5A5A"/>
<path d="M133.062 7.3252H133.833V10.8659H136V11.5262H133.062V7.3252Z" fill="#5A5A5A"/>
<path d="M82.2227 14.5273H82.9939V18.7284H82.2227V14.5273Z" fill="#5A5A5A"/>
<path d="M88.6303 14.5273V18.7284H87.997L85.71 15.8815V18.7256H84.9453V14.5273H85.5789L87.8675 17.3696V14.5273H88.6303Z" fill="#5A5A5A"/>
<path d="M91.4161 15.1877H90.0391V14.5273H93.5599V15.1877H92.1828V18.7284H91.4125L91.4161 15.1877Z" fill="#5A5A5A"/>
<path d="M98.085 18.0746V18.7256H94.9727V14.5273H98.0022V15.1784H95.7439V16.2703H97.7471V16.912H95.7439V18.0708L98.085 18.0746Z" fill="#5A5A5A"/>
<path d="M99.7734 14.5273H100.545V18.0681H102.714V18.7284H99.7761L99.7734 14.5273Z" fill="#5A5A5A"/>
<path d="M104.154 14.5273H104.925V18.0681H107.094V18.7284H104.156L104.154 14.5273Z" fill="#5A5A5A"/>
<path d="M108.535 14.5273H109.305V18.7284H108.535V14.5273Z" fill="#5A5A5A"/>
<path d="M114.089 16.5802H114.818V18.2543C114.595 18.4316 114.342 18.5659 114.071 18.6505C113.788 18.7423 113.491 18.7887 113.193 18.7882C112.795 18.7941 112.402 18.6982 112.05 18.5092C111.718 18.3312 111.442 18.0645 111.25 17.7381C111.059 17.4001 110.959 17.0175 110.959 16.6281C110.959 16.2388 111.059 15.8561 111.25 15.5181C111.442 15.1909 111.72 14.924 112.053 14.7471C112.408 14.5577 112.804 14.4618 113.206 14.4681C113.53 14.4635 113.852 14.5226 114.154 14.642C114.43 14.752 114.676 14.9267 114.872 15.1517L114.385 15.6325C114.237 15.4775 114.059 15.3549 113.862 15.2722C113.666 15.1895 113.454 15.1485 113.241 15.1517C112.97 15.1467 112.702 15.2106 112.462 15.3377C112.239 15.4576 112.054 15.6388 111.928 15.8604C111.797 16.0943 111.731 16.3596 111.736 16.6286C111.732 16.8936 111.798 17.1548 111.928 17.3847C112.055 17.607 112.239 17.7895 112.462 17.9121C112.699 18.043 112.966 18.1093 113.236 18.1046C113.534 18.1107 113.828 18.0363 114.089 17.8888V16.5802Z" fill="#5A5A5A"/>
<path d="M119.773 18.0746V18.7256H116.66V14.5273H119.69V15.1784H117.432V16.2703H119.436V16.912H117.432V18.0708L119.773 18.0746Z" fill="#5A5A5A"/>
<path d="M125.148 14.5273V18.7284H124.514L122.23 15.8815V18.7256H121.465V14.5273H122.099L124.383 17.3696V14.5273H125.148Z" fill="#5A5A5A"/>
<path d="M127.878 18.5091C127.548 18.3315 127.273 18.0646 127.084 17.7381C126.894 17.3996 126.795 17.0171 126.795 16.6281C126.795 16.239 126.894 15.8566 127.084 15.5181C127.275 15.1922 127.551 14.9255 127.881 14.747C128.23 14.5582 128.62 14.4622 129.016 14.468C129.335 14.4637 129.651 14.5248 129.946 14.6475C130.22 14.763 130.464 14.942 130.658 15.1702L130.16 15.6436C130.021 15.4858 129.85 15.3601 129.658 15.2752C129.467 15.1903 129.26 15.1482 129.051 15.1516C128.785 15.1461 128.522 15.2102 128.287 15.3376C128.066 15.4588 127.883 15.6406 127.759 15.8622C127.635 16.0964 127.569 16.3583 127.569 16.6244C127.569 16.8904 127.635 17.1524 127.759 17.3865C127.883 17.6082 128.066 17.7902 128.287 17.912C128.522 18.039 128.785 18.103 129.051 18.098C129.26 18.1013 129.468 18.0584 129.66 17.9723C129.851 17.8862 130.022 17.759 130.16 17.5995L130.658 18.0804C130.463 18.3088 130.219 18.4875 129.943 18.6021C129.647 18.7246 129.33 18.7856 129.01 18.7816C128.616 18.7889 128.226 18.6952 127.878 18.5091Z" fill="#5A5A5A"/>
<path d="M135.343 18.0746V18.7256H132.23V14.5273H135.26V15.1784H133.002V16.2703H135.006V16.912H133.002V18.0708L135.343 18.0746Z" fill="#5A5A5A"/>
<path d="M39.6597 0.125H35.7598V18.7233H39.6597V0.125Z" fill="#5A5A5A"/>
<path d="M60.9016 12.3697C62.4903 12.3697 63.7781 11.0651 63.7781 9.45585C63.7781 7.84657 62.4903 6.54199 60.9016 6.54199C59.3132 6.54199 58.0254 7.84657 58.0254 9.45585C58.0254 11.0651 59.3132 12.3697 60.9016 12.3697Z" fill="#5A5A5A"/>
<path d="M10.4604 0C7.68561 0.00147949 5.025 1.11919 3.06344 3.10741C1.1019 5.09563 -3.84317e-07 7.79161 0 10.6026V18.7276H3.89258V10.5524C4.11016 6.46017 6.83495 3.89601 10.465 3.89601C14.095 3.89601 16.8189 6.46108 17.0365 10.5524V18.7276H20.9254V10.598C20.9241 7.78695 19.8211 5.09147 17.8587 3.10412C15.8963 1.11677 13.2352 0.00024631 10.4604 0Z" fill="#5A5A5A"/>
</g>
<defs>
<clipPath id="clip0_1307_7379">
<rect width="136" height="19" fill="white"/>
</clipPath>
</defs>
</svg>

<svg width="136" height="19" viewBox="0 0 136 19" fill="none" xmlns="http://www.w3.org/2000/svg"><g clip-path="url(#a)" fill="#5A5A5A"><path d="M82.667 3.896c-.32-.326-.48-.793-.48-1.401V.125h.77v2.34c0 .824.352 1.236 1.056 1.236.703 0 1.053-.412 1.049-1.236V.125h.758v2.37c0 .608-.159 1.075-.476 1.401-.318.327-.763.49-1.337.49-.573 0-1.02-.163-1.34-.49Zm8.75-3.771v4.2h-.634l-2.288-2.844v2.844h-.764v-4.2h.634l2.285 2.844V.125h.767Zm1.944 0h.77v4.2h-.77v-4.2Zm6.484 0-1.808 4.2h-.759l-1.813-4.2h.835l1.377 3.24 1.394-3.24h.774Zm4.378 3.546v.651h-3.11V.125h3.03v.651h-2.259v1.092h2.003v.643h-2.003v1.158l2.339.002Zm4.406.655-.848-1.23c-.035 0-.091.006-.16.006h-.937v1.224h-.77v-4.2h1.707c.322-.008.642.053.94.18.25.106.464.285.613.515.146.24.22.517.213.798.008.29-.071.575-.228.817-.16.234-.389.412-.654.51l.954 1.38h-.83Zm-.276-3.324c-.174-.144-.428-.217-.764-.217h-.902v1.674h.902c.336 0 .59-.073.764-.22a.755.755 0 0 0 .202-.28.754.754 0 0 0 .059-.34.763.763 0 0 0-.263-.618h.002Zm3.083 3.246a1.916 1.916 0 0 1-.707-.366l.266-.606c.188.146.4.258.625.333.239.085.49.128.744.129.306 0 .536-.05.691-.15a.453.453 0 0 0 .166-.167.471.471 0 0 0 .062-.229.382.382 0 0 0-.128-.298.896.896 0 0 0-.322-.186 7.66 7.66 0 0 0-.535-.15 6.052 6.052 0 0 1-.767-.228 1.261 1.261 0 0 1-.503-.357.962.962 0 0 1-.211-.657A1.127 1.127 0 0 1 111 .683c.14-.203.336-.36.563-.453.291-.12.604-.177.918-.169.252 0 .503.031.748.093.225.057.439.151.633.28l-.243.606a2.398 2.398 0 0 0-.569-.247 2.108 2.108 0 0 0-.574-.083c-.305 0-.531.052-.68.156a.487.487 0 0 0-.184.575.387.387 0 0 0 .097.133.934.934 0 0 0 .323.18c.131.044.308.094.534.15.257.056.511.132.758.225.195.076.369.198.507.357a.947.947 0 0 1 .211.651c.003.224-.061.444-.184.63a1.267 1.267 0 0 1-.565.45c-.294.12-.609.177-.926.168a3.132 3.132 0 0 1-.931-.137Zm4.199-4.123h.771v4.2h-.771v-4.2Zm3.566.659h-1.377V.125h3.521v.66h-1.377v3.54h-.767V.785Zm5.284 2.06v1.481h-.771v-1.47l-1.63-2.73h.826l1.216 2.046 1.226-2.046h.76l-1.627 2.719Zm-41.467 8.464a2.055 2.055 0 0 1-.8-.775 2.25 2.25 0 0 1 0-2.215c.192-.327.469-.595.8-.773a2.49 2.49 0 0 1 2.29 0c.33.178.607.444.799.77a2.26 2.26 0 0 1 0 2.22 2.06 2.06 0 0 1-.8.773 2.489 2.489 0 0 1-2.289 0Zm1.892-.595c.218-.124.399-.306.521-.528a1.609 1.609 0 0 0 0-1.518 1.357 1.357 0 0 0-.521-.528 1.573 1.573 0 0 0-1.494 0 1.35 1.35 0 0 0-.521.528 1.606 1.606 0 0 0 0 1.518c.122.222.302.405.521.528a1.574 1.574 0 0 0 1.494 0Zm3.902-2.733v1.28h2.003v.66h-2.003v1.608h-.771V7.325h3.03v.651l-2.259.005Zm8.998 2.575h-2.075l-.409.972h-.795l1.864-4.202h.76l1.872 4.201h-.806l-.411-.97Zm-.255-.612-.783-1.837-.776 1.837h1.559Zm5.544 1.584-.847-1.226a1.38 1.38 0 0 1-.16.006h-.936v1.224h-.775V7.325h1.707a2.27 2.27 0 0 1 .94.18c.25.107.464.286.613.516.147.24.221.517.214.798.007.29-.072.575-.229.817-.16.235-.389.413-.654.51l.954 1.38h-.827Zm-.275-3.324c-.175-.144-.429-.217-.765-.217h-.901V9.66h.901c.336 0 .59-.072.765-.218a.768.768 0 0 0 .26-.622.749.749 0 0 0-.263-.617h.003Zm3.506-.217h-1.377v-.66h3.521v.66h-1.377v3.54h-.771l.004-3.54Zm3.557-.661h.77v4.201h-.77v-4.2Zm3.489.655v1.28h2.004v.66h-2.004v1.608h-.771V7.325h3.03v.651l-2.259.005Zm3.835-.655h.77v4.201h-.77v-4.2Zm3.505 3.983a2.045 2.045 0 0 1-.794-.772 2.267 2.267 0 0 1 0-2.22c.191-.326.467-.593.797-.771a2.47 2.47 0 0 1 2.066-.099 1.9 1.9 0 0 1 .711.522l-.499.474a1.442 1.442 0 0 0-1.108-.492 1.534 1.534 0 0 0-.764.186 1.34 1.34 0 0 0-.527.525 1.618 1.618 0 0 0 0 1.524c.124.222.306.404.527.525.235.128.498.192.764.186a1.423 1.423 0 0 0 1.108-.497l.499.48a1.897 1.897 0 0 1-.714.522 2.367 2.367 0 0 1-.934.18 2.317 2.317 0 0 1-1.132-.273Zm4.36-3.983h.77v4.201h-.77v-4.2Zm5.407 3.23h-2.075l-.409.972h-.794l1.867-4.202h.759l1.873 4.201h-.806l-.415-.97Zm-.255-.612-.783-1.837-.775 1.837h1.558Zm2.834-2.618h.771v3.54H136v.661h-2.938v-4.2Zm-50.839 7.202h.77v4.201h-.77v-4.2Zm6.407 0v4.201h-.633l-2.287-2.847v2.845h-.765v-4.199h.634l2.289 2.843v-2.843h.762Zm2.786.661H90.04v-.66h3.52v.66h-1.376v3.54h-.77l.003-3.54Zm6.669 2.887v.65h-3.112v-4.198h3.03v.651h-2.26v1.092h2.004v.642h-2.003v1.159l2.341.004Zm1.688-3.548h.772v3.541h2.169v.66h-2.938l-.003-4.2Zm4.381 0h.771v3.541h2.169v.66h-2.938l-.002-4.2Zm4.381 0h.77v4.201h-.77v-4.2Zm5.554 2.053h.729v1.674a2.303 2.303 0 0 1-.747.396c-.283.092-.58.139-.878.138a2.342 2.342 0 0 1-1.143-.279 2.056 2.056 0 0 1-.8-.77 2.256 2.256 0 0 1 0-2.22 2.04 2.04 0 0 1 .803-.772c.355-.19.751-.285 1.153-.279.324-.005.646.055.948.174.276.11.522.285.718.51l-.487.48a1.556 1.556 0 0 0-1.144-.48 1.601 1.601 0 0 0-.779.186 1.35 1.35 0 0 0-.534.522c-.131.234-.197.5-.192.769a1.49 1.49 0 0 0 .192.756c.127.222.311.404.534.527.237.131.504.197.774.193a1.67 1.67 0 0 0 .853-.216V16.58Zm5.684 1.495v.65h-3.113v-4.198h3.03v.651h-2.258v1.092h2.004v.642h-2.004v1.159l2.341.004Zm5.375-3.548v4.201h-.634l-2.284-2.847v2.845h-.765v-4.199h.634l2.284 2.843v-2.843h.765Zm2.73 3.983a2.03 2.03 0 0 1-.794-.772 2.268 2.268 0 0 1 0-2.22c.191-.326.467-.593.797-.771a2.312 2.312 0 0 1 1.135-.279c.319-.004.635.057.93.18.274.115.518.294.712.522l-.498.474a1.45 1.45 0 0 0-1.109-.492 1.536 1.536 0 0 0-.764.186 1.35 1.35 0 0 0-.528.524 1.63 1.63 0 0 0 0 1.525c.124.221.307.403.528.525.235.127.498.191.764.186a1.434 1.434 0 0 0 1.109-.498l.498.48a1.896 1.896 0 0 1-.715.522 2.361 2.361 0 0 1-.933.18 2.31 2.31 0 0 1-1.132-.273Zm7.465-.435v.65h-3.113v-4.198h3.03v.651h-2.258v1.092h2.004v.642h-2.004v1.159l2.341.004ZM39.66.125h-3.9v18.598h3.9V.125ZM60.902 12.37c1.588 0 2.876-1.305 2.876-2.914 0-1.61-1.288-2.914-2.876-2.914-1.589 0-2.877 1.305-2.877 2.914 0 1.61 1.288 2.914 2.877 2.914ZM10.46 0a10.398 10.398 0 0 0-7.397 3.107A10.673 10.673 0 0 0 0 10.603v8.125h3.893v-8.176c.217-4.092 2.942-6.656 6.572-6.656s6.354 2.565 6.572 6.656v8.176h3.888v-8.13a10.674 10.674 0 0 0-3.066-7.494A10.398 10.398 0 0 0 10.46 0Z"/></g><defs><clipPath id="a"><path fill="#fff" d="M0 0h136v19H0z"/></clipPath></defs></svg>
